X:513
T:Maggie
C:Joe Buchanan's Scottish Tome - Page 624.1
I:624 1
Z:Carl Allison
R:Quickstep
L:1/4
M:4/4
K:G
d | d2 B A | G2 A G | G4 | E G2 E | D2 G2 | B2 d2 | A4- | A2 B c |
d2 B A | G2 A G | G4 | E G2 E | D2 G B | d2 A B | G4- | G2 G G |
e2 e e| c2 d e | d4 | B d2 B | A2 d2 | e ^c f e | d4- | d2 B c |
d2 B A | G2 A G | G4 | E G2 E | D2 G B | d2 A B | G4- | G2 z/ :|

